X: 48
T:James Lishman's Hornpipe,aka. BF13.047
T:Hornpipe. BF13.047
M:4/4
Q:160
S:J.Lishman()MS,c1825,Lakes,Browne Coll.
R:Hornpipe
O:England
A:Lakes
N:Untitled in MS.. My Title..CGP
Z:vmp.Chris Partington
K:Bb
DC|B,DFA B2cd|ecdB BAGF|EGEC DFDB,|EFGEC2DC|!
B,DFA B2cd|ecdB BAGF|fdBd gecA|B2B2B2:|!
|:Bc|dBGB ecAc|gfga bgdB|FB BA/B/ Ac cB/c/|ecdB BAGF|!
fB BA/B/ gB BA/B/| aB BA/B/ bB BA/B/|FBdB gecA|B2B2B2:|]
W:Untitled in MS ||
